images/class_icons/rootwhisperer.svg

<svg height="400" viewBox="0 0 400 400" width="400" xmlns="http://www.w3.org/2000/svg"><path d="m51.738.735c-8.205 3.568-29.444 36.579-38.21 59.386-33.539 87.265-1.574 188.522 67.815 214.82 9.038 3.425 14.468 4.156 30.9 4.161 13.132.004 12.8.479 9.8-14.027-6.316-30.544-16.271-48.417-54.613-98.06-10.097-13.073-10.921-14.476-6.942-11.815 9.411 6.292 37.315 32.22 47.734 44.352 20.292 23.63 32.007 46.478 37.573 73.284 7.404 35.659-6.129 67.248-37.647 87.875-3.659 2.394-7.021 4.311-16.718 9.531-10.678 5.748-12.586 7.762-12.863 13.577-.601 12.614 7.978 16.665 22.209 10.489 24.548-10.654 39.576-22.732 56.318-45.262l5.145-6.925 6.119-.023c30.398-.118 36.337-.756 53.582-5.752 5.049-1.463 6.705-1.821 8.508-1.842l2.239-.026 4.776 2.703c22.524 12.751 46.451 11.671 65.951-2.976 9.151-6.874 14.204-14.495 20.896-31.518 8.934-22.728 12.022-28.31 20.153-36.428 10.597-10.582 23.001-16.587 42.201-20.43 12.903-2.583 14.649-3.673 12.571-7.844-3.46-6.943-21.727-19.333-37.742-25.599-26.617-10.415-61.996-11.12-89.254-1.779-31.846 10.913-60.804 39.199-64.896 63.39-1.372 8.113-1.26 14.757.27 16.078 5.012 4.325 44.619-11.934 80.889-33.206 15.616-9.158 16.231-8.906 6.54 2.685-27.106 32.418-76.006 57.054-113.102 56.98-8.681-.017-9.902-.237-9.779-1.764 1.635-20.35 1.189-32.893-1.797-50.573l-.677-4.013 4.335-3.942c16.943-15.403 26.201-30.524 28.879-47.165.769-4.784.764-21.479-.008-26.39-3.7-23.522-19.804-48.356-41.55-64.075-8.604-6.22-12.05-8.412-34.179-21.745-24.852-14.973-31.642-20.001-40.119-29.703-14.003-16.026-22.972-34.041-28.531-57.306-1.919-8.032-3.718-10.454-6.776-9.123" fill-rule="evenodd"/></svg>

<svg id="svg" xmlns="http://www.w3.org/2000/svg" xmlns:xlink="http://www.w3.org/1999/xlink" width="400" height="400" viewBox="0, 0, 400,400"><g id="svgg"><path id="path0" d="M51.738 0.735 C 43.533 4.303,22.294 37.314,13.528 60.121 C -20.011 147.386,11.954 248.643,81.343 274.941 C 90.381 278.366,95.811 279.097,112.243 279.102 C 125.375 279.106,125.043 279.581,122.043 265.075 C 115.727 234.531,105.772 216.658,67.430 167.015 C 57.333 153.942,56.509 152.539,60.488 155.200 C 69.899 161.492,97.803 187.420,108.222 199.552 C 128.514 223.182,140.229 246.030,145.795 272.836 C 153.199 308.495,139.666 340.084,108.148 360.711 C 104.489 363.105,101.127 365.022,91.430 370.242 C 80.752 375.990,78.844 378.004,78.567 383.819 C 77.966 396.433,86.545 400.484,100.776 394.308 C 125.324 383.654,140.352 371.576,157.094 349.046 L 162.239 342.121 168.358 342.098 C 198.756 341.980,204.695 341.342,221.940 336.346 C 226.989 334.883,228.645 334.525,230.448 334.504 L 232.687 334.478 237.463 337.181 C 259.987 349.932,283.914 348.852,303.414 334.205 C 312.565 327.331,317.618 319.710,324.310 302.687 C 333.244 279.959,336.332 274.377,344.463 266.259 C 355.060 255.677,367.464 249.672,386.664 245.829 C 399.567 243.246,401.313 242.156,399.235 237.985 C 395.775 231.042,377.508 218.652,361.493 212.386 C 334.876 201.971,299.497 201.266,272.239 210.607 C 240.393 221.520,211.435 249.806,207.343 273.997 C 205.971 282.110,206.083 288.754,207.613 290.075 C 212.625 294.400,252.232 278.141,288.502 256.869 C 304.118 247.711,304.733 247.963,295.042 259.554 C 267.936 291.972,219.036 316.608,181.940 316.534 C 173.259 316.517,172.038 316.297,172.161 314.770 C 173.796 294.420,173.350 281.877,170.364 264.197 L 169.687 260.184 174.022 256.242 C 190.965 240.839,200.223 225.718,202.901 209.077 C 203.670 204.293,203.665 187.598,202.893 182.687 C 199.193 159.165,183.089 134.331,161.343 118.612 C 152.739 112.392,149.293 110.200,127.164 96.867 C 102.312 81.894,95.522 76.866,87.045 67.164 C 73.042 51.138,64.073 33.123,58.514 9.858 C 56.595 1.826,54.796 -0.596,51.738 0.735 " stroke="none" fill="#000000" fill-rule="evenodd"></path></g></svg>
